images/en.svg

<?xml version="1.0" encoding="UTF-8"?>
<svg xmlns="http://www.w3.org/2000/svg" width="1e3" height="600" version="1.1" viewBox="0 0 50 30">
  <clipPath id="t">
    <path d="m25 15h25v15zv15h-25zh-25v-15zv-15h25z"/>
  </clipPath>
  <path d="m0 0v30h50v-30z" fill="#012169"/>
  <path d="M0,0 50,30M50,0 0,30" stroke="#fff" stroke-width="6"/>
  <path d="M0,0 50,30M50,0 0,30" clip-path="url(#t)" stroke="#C8102E" stroke-width="4"/>
  <path d="m-1 11h22v-12h8v12h22v8h-22v12h-8v-12h-22z" fill="#C8102E" stroke="#FFF" stroke-width="2"/>
</svg>

<?xml version="1.0" encoding="UTF-8"?>
<svg xmlns="http://www.w3.org/2000/svg" xmlns:xlink="http://www.w3.org/1999/xlink" width="600" height="1000" viewBox="0 0 600 1000">
<defs>
<clipPath id="clip-0">
<path clip-rule="nonzero" d="M 0 0 L 50 0 L 50 30 L 0 30 Z M 0 0 "/>
</clipPath>
<clipPath id="clip-1">
<path clip-rule="nonzero" d="M 25 15 L 50 15 L 50 30 Z M 25 15 L 25 30 L 0 30 Z M 25 15 L 0 15 L 0 0 Z M 25 15 L 25 0 L 50 0 Z M 25 15 "/>
</clipPath>
</defs>
<path fill-rule="nonzero" fill="rgb(0.392157%, 12.941176%, 41.176471%)" fill-opacity="1" d="M 0 0 L 0 30 L 50 30 L 50 0 Z M 0 0 "/>
<path fill-rule="nonzero" fill="rgb(0%, 0%, 0%)" fill-opacity="1" stroke-width="6" stroke-linecap="butt" stroke-linejoin="miter" stroke="rgb(100%, 100%, 100%)" stroke-opacity="1" stroke-miterlimit="4" d="M 0 0 L 50 30 M 50 0 L 0 30 "/>
<g clip-path="url(#clip-0)">
<g clip-path="url(#clip-1)">
<path fill-rule="nonzero" fill="rgb(0%, 0%, 0%)" fill-opacity="1" stroke-width="4" stroke-linecap="butt" stroke-linejoin="miter" stroke="rgb(78.431373%, 6.27451%, 18.039216%)" stroke-opacity="1" stroke-miterlimit="4" d="M 0 0 L 50 30 M 50 0 L 0 30 "/>
</g>
</g>
<path fill-rule="nonzero" fill="rgb(78.431373%, 6.27451%, 18.039216%)" fill-opacity="1" stroke-width="2" stroke-linecap="butt" stroke-linejoin="miter" stroke="rgb(100%, 100%, 100%)" stroke-opacity="1" stroke-miterlimit="4" d="M -1 11 L 21 11 L 21 -1 L 29 -1 L 29 11 L 51 11 L 51 19 L 29 19 L 29 31 L 21 31 L 21 19 L -1 19 Z M -1 11 "/>
</svg>
